icons/outline/circle-dotted-letter-q.svg

<!--
tags: [alphabet, monogram, typography, symbol, emblem, character, initial, graphic, design, decoration]
category: Letters
unicode: "ff6f"
version: "3.11"
-->
<svg
  xmlns="http://www.w3.org/2000/svg"
  width="24"
  height="24"
  viewBox="0 0 24 24"
  fill="none"
  stroke="currentColor"
  stroke-width="2"
  stroke-linecap="round"
  stroke-linejoin="round"
>
  <path d="M12 8a2 2 0 0 1 2 2v4a2 2 0 1 1 -4 0v-4a2 2 0 0 1 2 -2m1 7l1 1m-6.5 -11.79v.01m-3.29 3.28v.01m-1.21 4.49v.01m1.21 4.49v.01m3.29 3.28v.01m4.5 1.2v.01m4.5 -1.22v.01m3.29 -3.3v.01m1.21 -4.51v.01m-1.21 -4.51v.01m-3.29 -3.3v.01m-4.5 -1.22v.01" />
</svg>

<!--
tags: [alphabet, monogram, typography, symbol, emblem, character, initial, graphic, design, decoration]
category: Letters
unicode: "ff6f"
version: "3.11"
-->
<svg
  xmlns="http://www.w3.org/2000/svg"
  width="24"
  height="24"
  viewBox="0 0 24 24"
  fill="none"
  stroke="currentColor"
  stroke-width="2"
  stroke-linecap="round"
  stroke-linejoin="round"
>
    <path d="M12 8a2 2 0 0 1 2 2v4a2 2 0 1 1 -4 0v-4a2 2 0 0 1 2 -2M13 15l1 1M7.5 4.21v.01M4.21 7.5v.01M3 12v.01M4.21 16.5v.01M7.5 19.79v.01M12 21v.01M16.5 19.79v.01M19.79 16.5v.01M21 12v.01M19.79 7.5v.01M16.5 4.21v.01M12 3v.01" />
</svg>
